src/icons/icons_set_02/032-coeur-contour.svg

<svg height="50" viewBox="0 0 50 50" width="50" xmlns="http://www.w3.org/2000/svg"><path d="m22.9887182 36.9016935.0198118.0000353c.3156334.0021264.6188911-.1226274.8443334-.3489193l14.517065-14.5170651.0894342-.0841053c2.7859845-2.463304 3.9997113-6.2542165 3.1624726-9.8775585-.8372387-3.62334213-3.5910467-6.49748386-7.175291-7.48883128-3.5842443-.99134743-7.4235708.05923359-10.003706 2.73738208l-1.445015 1.49990781-1.440134-1.50459499c-2.5771134-2.69246606-6.4237451-3.75380327-10.0169018-2.76379738-3.59315669.9900059-6.3533831 3.87170027-7.18782531 7.50413646-.8344422 3.6324363.39146725 7.4298246 3.19235515 9.8886686l.0951176.0891559 14.51234146 14.5198056c.2212926.222265.5223.3467741.8359419.3457801zm-3.6678294 2.4791798-14.46525221-14.4726869c-3.87000752-3.4301905-5.55975104-8.7018434-4.4011338-13.745456 1.16367062-5.06561063 5.01294182-9.08427486 10.02377521-10.46488667 4.3786868-1.20643937 9.0272946-.22843964 12.5286156 2.54297256 3.5016084-2.75316866 8.1395123-3.71851406 12.5059556-2.51082231 4.9984046 1.38248264 8.8387249 5.39061437 10.0062954 10.44354282 1.1627855 5.0322205-.5112059 10.2962147-4.3625671 13.7324128l-14.4726136 14.4726085c-.9776075.9813143-2.3075957 1.5298204-3.6924736 1.5231372-1.3783682.0017333-2.7006222-.5465751-3.6706015-1.520822z" transform="translate(1.995 4.480799)"/></svg>

<?xml version="1.0" encoding="UTF-8"?>
<svg width="50px" height="50px" viewBox="0 0 50 50" version="1.1" xmlns="http://www.w3.org/2000/svg" xmlns:xlink="http://www.w3.org/1999/xlink">
    <!-- Generator: Sketch 52.2 (67145) - http://www.bohemiancoding.com/sketch -->
    <title>032-coeur-contour</title>
    <desc>Created with Sketch.</desc>
    <g id="032-coeur-contour" stroke="none" stroke-width="1" fill="none" fill-rule="evenodd">
        <g id="Group" transform="translate(1.995000, 4.480799)" fill="#000000" fill-rule="nonzero">
            <g id="133-coeur-contour">
                <g id="ICONSET-01">
                    <g id="133-coeur-contour">
                        <path d="M22.9887182,36.9016935 L23.00853,36.9017288 C23.3241634,36.9038552 23.6274211,36.7791014 23.8528634,36.5528095 L38.3699284,22.0357444 L38.4593626,21.9516391 C41.2453471,19.4883351 42.4590739,15.6974226 41.6218352,12.0740806 C40.7845965,8.45073847 38.0307885,5.57659674 34.4465442,4.58524932 C30.8622999,3.59390189 27.0229734,4.64448291 24.4428382,7.3226314 L22.9978232,8.82253921 L21.5576892,7.31794422 C18.9805758,4.62547816 15.1339441,3.56414095 11.5407874,4.55414684 C7.94763071,5.54415274 5.1874043,8.42584711 4.35296209,12.0582833 C3.51851989,15.6907196 4.74442934,19.4881079 7.54531724,21.9469519 L7.64043484,22.0361078 L22.1527763,36.5559134 C22.3740689,36.7781784 22.6750763,36.9026875 22.9887182,36.9016935 Z M19.3208888,39.3808733 L4.85563659,24.9081864 C0.985629066,21.4779959 -0.704114445,16.206343 0.454502794,11.1627304 C1.61817341,6.09711977 5.46744461,2.07845554 10.478278,0.697843726 C14.8569648,-0.508595644 19.5055726,0.469404091 23.0068936,3.24081629 C26.508502,0.487647627 31.1464059,-0.47769777 35.5128492,0.729993976 C40.5112538,2.11247662 44.3515741,6.12060835 45.5191446,11.1735368 C46.6819301,16.2057573 45.0079387,21.4697515 41.1565775,24.9059496 L26.6839639,39.3785581 C25.7063564,40.3598724 24.3763682,40.9083785 22.9914903,40.9016953 C21.6131221,40.9034286 20.2908681,40.3551202 19.3208888,39.3808733 Z" id="Shape"></path>
                    </g>
                </g>
            </g>
        </g>
    </g>
</svg>
